logos/tron.svg

<svg width="368px" height="428px" viewBox="0 0 368 428" xmlns="http://www.w3.org/2000/svg" xmlns:xlink="http://www.w3.org/1999/xlink"><path d="M362.4 112.7c-17.3-12.1-35.8-25-53.9-37.8-.4-.3-.8-.6-1.3-.9-2-1.5-4.3-3.1-7.1-4l-.2-.1c-48.4-11.7-97.6-23.7-145.2-35.3-43.2-10.5-86.3-21-129.5-31.5-1.1-.3-2.2-.6-3.4-.9C17.9 1.1 13.4-.1 8.6.5 7.2.7 6 1.2 4.9 1.9l-1.2 1C1.8 4.7.8 7 .3 8.3l-.3.8v4.6l.2.7c27.3 76.5 55.3 154.1 82.3 229.2 20.8 57.8 42.4 117.7 63.5 176.5 1.3 4 5 6.6 9.6 7h1c4.3 0 8.1-2.1 10-5.5l79.2-115.5c19.3-28.1 38.6-56.3 57.9-84.4 7.9-11.5 15.8-23.1 23.7-34.6 13-19 26.4-38.6 39.7-57.7l.7-1v-1.2c.3-3.5.4-10.7-5.4-14.5m-92.8 42.1c-18.6 9.7-37.6 19.7-56.7 29.6 11.1-11.9 22.3-23.9 33.4-35.8 13.9-15 28.4-30.5 42.6-45.7l.3-.3c1.2-1.6 2.7-3.1 4.3-4.7 1.1-1.1 2.3-2.2 3.4-3.5 7.4 5.1 14.9 10.3 22.1 15.4 5.2 3.7 10.5 7.4 15.9 11.1-22 11.2-44 22.7-65.3 33.9m-47.8-4.8c-14.3 15.5-29.1 31.4-43.8 47.1-28.5-34.6-57.6-69.7-85.8-103.6-12.8-15.4-25.7-30.9-38.5-46.3l-.1-.1c-2.9-3.3-5.7-6.9-8.5-10.3-1.8-2.3-3.7-4.5-5.6-6.8 11.6 3 23.3 5.8 34.8 8.5 10.1 2.4 20.6 4.9 30.9 7.5 58 14.1 116.1 28.2 174.1 42.3-19.3 20.6-38.7 41.5-57.5 61.7m-50.3 194.9c1.1-10.5 2.3-21.3 3.3-31.9.9-8.5 1.8-17.2 2.7-25.5 1.4-13.3 2.9-27.1 4.1-40.6l.3-2.4c1-8.6 2-17.5 2.6-26.4 1.1-.6 2.3-1.2 3.6-1.7 1.5-.7 3-1.3 4.5-2.2 23.1-12.1 46.2-24.2 69.4-36.2 23.1-12 46.8-24.4 70.3-36.7-21.4 31-42.9 62.3-63.7 92.8-17.9 26.1-36.3 53-54.6 79.5-7.2 10.6-14.7 21.4-21.8 31.8-8 11.6-16.2 23.5-24.2 35.4 1-12 2.2-24.1 3.5-35.9M32.1 53.6c-1.3-3.6-2.7-7.3-3.9-10.8 27 32.6 54.2 65.4 80.7 97.2 13.7 16.5 27.4 32.9 41.1 49.5 2.7 3.1 5.4 6.4 8 9.6 3.4 4.1 6.8 8.4 10.5 12.5-1.2 10.3-2.2 20.7-3.3 30.7-.7 7-1.4 14-2.2 21.1v.1c-.3 4.5-.9 9-1.4 13.4-.7 6.1-2.3 19.9-2.3 19.9l-.1.7c-1.8 20.2-4 40.6-6.1 60.4-.9 8.2-1.7 16.6-2.6 25-.5-1.5-1.1-3-1.6-4.4-1.5-4-3-8.2-4.4-12.3l-10.7-29.7C99.9 242.2 66 148 32.1 53.6" fill="#FFF" fill-rule="nonzero"/></svg>

<svg width="368px" height="428px" viewBox="0 0 368 428" version="1.1" xmlns="http://www.w3.org/2000/svg">
    <!-- Generator: Sketch 48.2 (47327) - http://www.bohemiancoding.com/sketch -->
    <title>trx</title>
    <desc>Created with Sketch.</desc>
    <defs></defs>
    <g id="Page-1" stroke="none" stroke-width="1" fill="none" fill-rule="evenodd">
        <g id="trx" fill="#FFFFFF" fill-rule="nonzero">
            <path d="M362.4,112.7 C345.1,100.6 326.6,87.7 308.5,74.9 C308.1,74.6 307.7,74.3 307.2,74 C305.2,72.5 302.9,70.9 300.1,70 L299.9,69.9 C251.5,58.2 202.3,46.2 154.7,34.6 C111.5,24.1 68.4,13.6 25.2,3.1 C24.1,2.8 23,2.5 21.8,2.2 C17.9,1.1 13.4,-0.1 8.6,0.5 C7.2,0.7 6,1.2 4.9,1.9 L3.7,2.9 C1.8,4.7 0.8,7 0.3,8.3 L2.84217094e-14,9.1 L2.84217094e-14,13.7 L0.2,14.4 C27.5,90.9 55.5,168.5 82.5,243.6 C103.3,301.4 124.9,361.3 146,420.1 C147.3,424.1 151,426.7 155.6,427.1 L156.6,427.1 C160.9,427.1 164.7,425 166.6,421.6 L245.8,306.1 C265.1,278 284.4,249.8 303.7,221.7 C311.6,210.2 319.5,198.6 327.4,187.1 C340.4,168.1 353.8,148.5 367.1,129.4 L367.8,128.4 L367.8,127.2 C368.1,123.7 368.2,116.5 362.4,112.7 M269.6,154.8 C251,164.5 232,174.5 212.9,184.4 C224,172.5 235.2,160.5 246.3,148.6 C260.2,133.6 274.7,118.1 288.9,102.9 L289.2,102.6 C290.4,101 291.9,99.5 293.5,97.9 C294.6,96.8 295.8,95.7 296.9,94.4 C304.3,99.5 311.8,104.7 319,109.8 C324.2,113.5 329.5,117.2 334.9,120.9 C312.9,132.1 290.9,143.6 269.6,154.8 M221.8,150 C207.5,165.5 192.7,181.4 178,197.1 C149.5,162.5 120.4,127.4 92.2,93.5 C79.4,78.1 66.5,62.6 53.7,47.2 L53.6,47.1 C50.7,43.8 47.9,40.2 45.1,36.8 C43.3,34.5 41.4,32.3 39.5,30 C51.1,33 62.8,35.8 74.3,38.5 C84.4,40.9 94.9,43.4 105.2,46 C163.2,60.1 221.3,74.2 279.3,88.3 C260,108.9 240.6,129.8 221.8,150 M171.5,344.9 C172.6,334.4 173.8,323.6 174.8,313 C175.7,304.5 176.6,295.8 177.5,287.5 C178.9,274.2 180.4,260.4 181.6,246.9 L181.9,244.5 C182.9,235.9 183.9,227 184.5,218.1 C185.6,217.5 186.8,216.9 188.1,216.4 C189.6,215.7 191.1,215.1 192.6,214.2 C215.7,202.1 238.8,190 262,178 C285.1,166 308.8,153.6 332.3,141.3 C310.9,172.3 289.4,203.6 268.6,234.1 C250.7,260.2 232.3,287.1 214,313.6 C206.8,324.2 199.3,335 192.2,345.4 C184.2,357 176,368.9 168,380.8 C169,368.8 170.2,356.7 171.5,344.9 M32.1,53.6 C30.8,50 29.4,46.3 28.2,42.8 C55.2,75.4 82.4,108.2 108.9,140 C122.6,156.5 136.3,172.9 150,189.5 C152.7,192.6 155.4,195.9 158,199.1 C161.4,203.2 164.8,207.5 168.5,211.6 C167.3,221.9 166.3,232.3 165.2,242.3 C164.5,249.3 163.8,256.3 163,263.4 L163,263.5 C162.7,268 162.1,272.5 161.6,276.9 C160.9,283 159.3,296.8 159.3,296.8 L159.2,297.5 C157.4,317.7 155.2,338.1 153.1,357.9 C152.2,366.1 151.4,374.5 150.5,382.9 C150,381.4 149.4,379.9 148.9,378.5 C147.4,374.5 145.9,370.3 144.5,366.2 L133.8,336.5 C99.9,242.2 66,148 32.1,53.6" id="Shape"></path>
        </g>
    </g>
</svg>
